static/logo.svg

<svg viewBox="-10 -30 220 60" xmlns="http://www.w3.org/2000/svg">
<path d="M-0.4477414,2.357865 L10.644527,4.4640846 L21.424892,6.285505 L31.907442,7.8286805 L42.144264,8.972194 L52.151237,9.859005 L61.965122,10.500447 L71.62277,10.907925 L81.16117,11.092898 L90.61747,11.0668745 L100.029015,10.841379 L109.433334,10.42794 L118.86818,9.838061 L128.37144,9.083208 L137.98122,8.174793 L147.73566,7.1241746 L157.67302,5.9426556 L167.8316,4.641491 L178.24973,3.2318974 L188.98283,1.8572849 L200.05234,0.3965622 L199.94766,-0.3965622 L188.87967,1.0639651 L178.15028,2.4381025 L167.70589,3.582259 L157.52698,4.6173444 L147.57684,5.5320754 L137.81879,6.315207 L128.21605,6.955542 L118.73182,7.4419384 L109.32916,7.7633095 L99.970985,7.9086204 L90.620026,7.8668756 L81.23883,7.6271014 L71.78973,7.1783257 L62.234875,6.509553 L52.536263,5.6097455 L42.655735,4.467806 L32.555058,3.0725694 L22.175108,1.544495 L11.492972,-0.26033482 L0.4477414,-2.357865 z" fill="black" stroke="none"/>
<g fill="none" stroke="black" stroke-width="1">
<path d="M42.4,6.72 c3.4756024,-6.951205,4.170723,-10.426807,6.951205,-13.90241"/>
<path d="M42.4,6.72 c4.4756093,8.951219,5.3707314,13.426828,8.951219,17.902437"/>
<path d="M47.397655,7.2583594 c3.5975416,-7.195083,4.31705,-10.792624,7.195083,-14.390166"/>
<path d="M47.397655,7.2583594 c4.59756,9.19512,5.5170717,13.79268,9.19512,18.39024"/>
<path d="M52.34375,7.734375 c3.7194657,-7.4389315,4.463359,-11.158397,7.4389315,-14.877863"/>
<path d="M52.34375,7.734375 c4.7195086,9.439017,5.66341,14.158526,9.439017,18.878035"/>
<path d="M57.24297,8.149453 c3.8413603,-7.6827207,4.6096325,-11.524081,7.6827207,-15.365441"/>
<path d="M57.24297,8.149453 c4.841454,9.682908,5.809745,14.524363,9.682908,19.365816"/>
<path d="M62.1,8.505 c3.9632013,-7.9264026,4.7558413,-11.889604,7.9264026,-15.852805"/>
<path d="M62.1,8.505 c4.963392,9.926784,5.95607,14.890175,9.926784,19.853567"/>
<path d="M66.91953,8.802422 c4.0849485,-8.169897,4.901938,-12.254846,8.169897,-16.339794"/>
<path d="M66.91953,8.802422 c5.085314,10.170628,6.1023765,15.25594,10.170628,20.341255"/>
<path d="M71.70625,9.043125 c4.2065396,-8.413079,5.0478473,-12.619618,8.413079,-16.826159"/>
<path d="M71.70625,9.043125 c5.207205,10.41441,6.248646,15.621614,10.41441,20.82882"/>
<path d="M76.46484,9.228516 c4.327879,-8.655758,5.1934543,-12.983636,8.655758,-17.311516"/>
<path d="M76.46484,9.228516 c5.3290396,10.658079,6.3948474,15.987118,10.658079,21.316158"/>
<path d="M81.2,9.36 c4.4488254,-8.897651,5.33859,-13.346476,8.897651,-17.795301"/>
<path d="M81.2,9.36 c5.450773,10.901546,6.5409274,16.35232,10.901546,21.803091"/>
<path d="M85.916405,9.438984 c4.5691757,-9.138351,5.483011,-13.707526,9.138351,-18.276703"/>
<path d="M85.916405,9.438984 c5.572334,11.144668,6.6868005,16.717001,11.144668,22.289335"/>
<path d="M90.61875,9.466875 c4.688642,-9.377284,5.626371,-14.065927,9.377284,-18.754568"/>
<path d="M90.61875,9.466875 c5.693607,11.387214,6.8323283,17.080822,11.387214,22.774427"/>
<path d="M95.31172,9.445078 c4.8068275,-9.613655,5.768193,-14.420483,9.613655,-19.22731"/>
<path d="M95.31172,9.445078 c5.814416,11.628832,6.977299,17.443249,11.628832,23.257664"/>
<path d="M100,9.375 c4.9231896,-9.846379,5.9078274,-14.769569,9.846379,-19.692759"/>
<path d="M100,9.375 c5.9344935,11.868987,7.1213923,17.80348,11.868987,23.737974"/>
<path d="M104.68828,9.258047 c4.9156294,-9.831259,5.898755,-14.746888,9.831259,-19.662518"/>
<path d="M104.68828,9.258047 c5.931644,11.863288,7.117973,17.794933,11.863288,23.726576"/>
<path d="M109.38125,9.095625 c4.783968,-9.567936,5.7407618,-14.351905,9.567936,-19.135872"/>
<path d="M109.38125,9.095625 c5.8055625,11.611125,6.9666753,17.416689,11.611125,23.22225"/>
<path d="M114.083595,8.889141 c4.649075,-9.29815,5.5788903,-13.947226,9.29815,-18.5963"/>
<path d="M114.083595,8.889141 c5.677545,11.35509,6.813054,17.032635,11.35509,22.71018"/>
<path d="M118.8,8.64 c4.510128,-9.020256,5.4121532,-13.530383,9.020256,-18.040512"/>
<path d="M118.8,8.64 c5.5468454,11.093691,6.656214,16.640535,11.093691,22.187382"/>
<path d="M123.53516,8.349609 c4.366159,-8.732318,5.239391,-13.098476,8.732318,-17.464636"/>
<path d="M123.53516,8.349609 c5.412489,10.824978,6.4949865,16.237467,10.824978,21.649956"/>
<path d="M128.29375,8.019375 c4.2160463,-8.432093,5.0592556,-12.648139,8.432093,-16.864185"/>
<path d="M128.29375,8.019375 c5.27322,10.54644,6.327864,15.81966,10.54644,21.09288"/>
<path d="M133.08047,7.650703 c4.0585027,-8.117005,4.8702035,-12.1755085,8.117005,-16.23401"/>
<path d="M133.08047,7.650703 c5.127442,10.254884,6.15293,15.382325,10.254884,20.509768"/>
<path d="M137.9,7.245 c3.892069,-7.784138,4.670483,-11.676208,7.784138,-15.568276"/>
<path d="M137.9,7.245 c4.9731474,9.946295,5.967777,14.919442,9.946295,19.89259"/>
<path d="M142.75703,6.803672 c3.7151113,-7.4302225,4.4581337,-11.145333,7.4302225,-14.860445"/>
<path d="M142.75703,6.803672 c4.807846,9.615692,5.7694154,14.423538,9.615692,19.231384"/>
<path d="M147.65625,6.328125 c3.5258207,-7.0516415,4.2309847,-10.577462,7.0516415,-14.103283"/>
<path d="M147.65625,6.328125 c4.6284776,9.256955,5.554173,13.885433,9.256955,18.51391"/>
<path d="M152.60234,5.8197656 c3.3222213,-6.6444426,3.9866655,-9.966663,6.6444426,-13.288885"/>
<path d="M152.60234,5.8197656 c4.4313245,8.862649,5.3175893,13.293973,8.862649,17.725298"/>
<path d="M157.6,5.28 c3.1021824,-6.204365,3.722619,-9.306547,6.204365,-12.40873"/>
<path d="M157.6,5.28 c4.211915,8.42383,5.054298,12.635745,8.42383,16.84766"/>
<path d="M162.6539,4.710234 c2.8634403,-5.7268806,3.4361284,-8.590321,5.7268806,-11.453761"/>
<path d="M162.6539,4.710234 c3.9649248,7.9298496,4.75791,11.894774,7.9298496,15.859699"/>
<path d="M167.76875,4.111875 c2.6036274,-5.207255,3.124353,-7.810882,5.207255,-10.41451"/>
<path d="M167.76875,4.111875 c3.6840746,7.3681493,4.42089,11.052224,7.3681493,14.736299"/>
<path d="M172.94922,3.4863281 c2.3203146,-4.6406293,2.7843776,-6.960944,4.6406293,-9.281259"/>
<path d="M172.94922,3.4863281 c3.3620312,6.7240624,4.0344377,10.086094,6.7240624,13.448125"/>
<path d="M178.2,2.835 c2.0110652,-4.0221305,2.4132783,-6.033196,4.0221305,-8.044261"/>
<path d="M178.2,2.835 c2.9903119,5.9806237,3.5883741,8.970936,5.9806237,11.961247"/>
<path d="M183.52579,2.159297 c1.6735029,-3.3470058,2.0082035,-5.020509,3.3470058,-6.6940117"/>
<path d="M183.52579,2.159297 c2.5591986,5.118397,3.0710382,7.6775956,5.118397,10.236794"/>
<path d="M188.93124,1.460625 c1.3053962,-2.6107924,1.5664755,-3.9161887,2.6107924,-5.221585"/>
<path d="M188.93124,1.460625 c2.057669,4.115338,2.4692028,6.1730065,4.115338,8.230676"/>
<path d="M194.4211,0.7403906 c0.904763,-1.809526,1.0857155,-2.714289,1.809526,-3.619052"/>
<path d="M194.4211,0.7403906 c1.4733474,2.9466949,1.7680169,4.4200425,2.9466949,5.8933897"/>
<path d="M200,0 c0.46999374,-0.9399875,0.5639925,-1.4099813,0.9399875,-1.879975"/>
<path d="M200,0 c0.7924887,1.5849774,0.95098644,2.3774662,1.5849774,3.1699548"/>
</g>
</svg>

<svg xmlns="http://www.w3.org/2000/svg" viewBox="-10 -30 220 60">
    <path d="m-.448 2.358 11.093 2.106 10.78 1.822 10.482 1.543 10.237 1.143 10.007.887 9.814.641 9.658.408 9.538.185 9.456-.026 9.412-.226 9.404-.413 9.435-.59 9.503-.755 9.61-.908 9.755-1.05 9.937-1.182 10.159-1.302 10.418-1.41 10.733-1.374 11.07-1.46-.105-.794-11.068 1.461-10.73 1.374-10.444 1.144-10.179 1.035-9.95.915-9.758.783-9.603.64-9.484.487-9.403.321-9.358.146-9.351-.042-9.381-.24-9.45-.449-9.554-.668-9.699-.9-9.88-1.142-10.1-1.395-10.38-1.529L11.492-.26.448-2.358z"/>
    <path fill="none" stroke="#000" d="M42.4 6.72c3.476-6.951 4.17-10.427 6.951-13.902M42.4 6.72c4.476 8.951 5.37 13.427 8.951 17.902M47.398 7.258c3.597-7.195 4.317-10.792 7.195-14.39m-7.195 14.39c4.597 9.195 5.517 13.793 9.195 18.39M52.344 7.734c3.72-7.439 4.463-11.158 7.439-14.877M52.344 7.734c4.72 9.44 5.663 14.159 9.439 18.878M57.243 8.15c3.841-7.683 4.61-11.525 7.683-15.366M57.243 8.15c4.841 9.682 5.81 14.524 9.683 19.365M62.1 8.505c3.963-7.926 4.756-11.89 7.926-15.853M62.1 8.505c4.963 9.927 5.956 14.89 9.927 19.854M66.92 8.802c4.084-8.17 4.901-12.254 8.17-16.34m-8.17 16.34c5.085 10.171 6.102 15.256 10.17 20.342M71.706 9.043C75.913.63 76.754-3.577 80.12-7.783M71.706 9.043c5.207 10.415 6.249 15.622 10.415 20.829M76.465 9.229C80.793.573 81.658-3.755 85.12-8.083M76.465 9.229c5.329 10.658 6.395 15.987 10.658 21.316M81.2 9.36C85.649.462 86.539-3.986 90.098-8.435M81.2 9.36c5.45 10.902 6.54 16.352 10.902 21.803M85.916 9.439C90.486.301 91.4-4.269 95.055-8.838M85.916 9.439c5.573 11.145 6.687 16.717 11.145 22.29M90.619 9.467C95.307.09 96.245-4.6 99.996-9.288M90.619 9.467c5.693 11.387 6.832 17.08 11.387 22.774M95.312 9.445c4.807-9.614 5.768-14.42 9.613-19.227M95.312 9.445c5.814 11.629 6.977 17.443 11.629 23.258M100 9.375c4.923-9.846 5.908-14.77 9.846-19.693M100 9.375c5.934 11.869 7.121 17.803 11.869 23.738m-7.181-23.855c4.916-9.831 5.899-14.747 9.832-19.662m-9.832 19.662c5.932 11.863 7.118 17.795 11.864 23.727m-7.171-23.889c4.784-9.568 5.741-14.352 9.568-19.136m-9.568 19.136c5.806 11.61 6.967 17.416 11.611 23.222M114.084 8.89c4.649-9.299 5.578-13.948 9.298-18.597M114.084 8.89c5.677 11.354 6.813 17.032 11.355 22.71M118.8 8.64c4.51-9.02 5.412-13.53 9.02-18.04M118.8 8.64c5.547 11.094 6.656 16.64 11.094 22.187M123.535 8.35c4.366-8.733 5.24-13.099 8.732-17.465M123.535 8.35c5.413 10.825 6.495 16.237 10.825 21.65m-6.066-21.98c4.216-8.433 5.059-12.649 8.432-16.865M128.294 8.02c5.273 10.546 6.328 15.819 10.546 21.092M133.08 7.65c4.059-8.116 4.87-12.175 8.117-16.233M133.08 7.65c5.128 10.256 6.153 15.383 10.255 20.51M137.9 7.245c3.892-7.784 4.67-11.676 7.784-15.568M137.9 7.245c4.973 9.946 5.968 14.92 9.946 19.893m-5.089-20.334c3.715-7.43 4.458-11.146 7.43-14.86m-7.43 14.86c4.808 9.615 5.77 14.423 9.616 19.231m-4.717-19.707c3.526-7.052 4.231-10.577 7.052-14.103m-7.052 14.103c4.629 9.257 5.554 13.886 9.257 18.514M152.602 5.82c3.323-6.645 3.987-9.967 6.645-13.29m-6.645 13.29c4.432 8.862 5.318 13.294 8.863 17.725M157.6 5.28c3.102-6.204 3.723-9.307 6.204-12.409M157.6 5.28c4.212 8.424 5.054 12.636 8.424 16.848m-3.37-17.418c2.863-5.727 3.436-8.59 5.727-11.454M162.654 4.71c3.965 7.93 4.758 11.895 7.93 15.86m-2.815-16.458c2.603-5.207 3.124-7.811 5.207-10.415m-5.207 10.415c3.684 7.368 4.42 11.052 7.368 14.736M172.95 3.486c2.32-4.64 2.784-6.96 4.64-9.28m-4.64 9.28c3.361 6.724 4.034 10.086 6.723 13.448M178.2 2.835c2.011-4.022 2.413-6.033 4.022-8.044M178.2 2.835c2.99 5.98 3.588 8.97 5.98 11.961m-.654-12.636c1.673-3.348 2.008-5.021 3.347-6.695m-3.347 6.695c2.559 5.118 3.07 7.677 5.118 10.236m.287-10.936c1.306-2.61 1.567-3.916 2.611-5.221m-2.611 5.221c2.058 4.116 2.47 6.174 4.116 8.231M194.421.74c.905-1.81 1.086-2.714 1.81-3.619M194.421.74c1.473 2.947 1.768 4.42 2.947 5.894M200 0c.47-.94.564-1.41.94-1.88M200 0c.792 1.585.951 2.377 1.585 3.17"/>
</svg>
